assets/img/dl/windows.svg

<svg width="224" height="72" viewBox="0 0 224 72" fill="none" xmlns="http://www.w3.org/2000/svg">
  <rect width="224" height="72" rx="8" fill="#3D3D46"/>
  <path d="M77.162 26V16.844H79.612C81.012 16.844 82.104 17.222 82.888 17.978C83.672 18.734 84.064 19.868 84.064 21.38C84.064 22.136 83.9613 22.8033 83.756 23.382C83.56 23.9607 83.2707 24.446 82.888 24.838C82.5147 25.2207 82.0573 25.51 81.516 25.706C80.984 25.902 80.3773 26 79.696 26H77.162ZM78.786 24.684H79.5C80.4333 24.684 81.1473 24.418 81.642 23.886C82.146 23.3447 82.398 22.5093 82.398 21.38C82.398 20.26 82.146 19.4433 81.642 18.93C81.138 18.4167 80.424 18.16 79.5 18.16H78.786V24.684ZM89.468 26.168C88.8707 26.168 88.3247 26.0607 87.83 25.846C87.3353 25.622 86.9107 25.3047 86.556 24.894C86.2013 24.474 85.926 23.97 85.73 23.382C85.534 22.794 85.436 22.1267 85.436 21.38C85.436 20.6427 85.534 19.9847 85.73 19.406C85.926 18.818 86.2013 18.3233 86.556 17.922C86.9107 17.5207 87.3353 17.2127 87.83 16.998C88.3247 16.7833 88.8707 16.676 89.468 16.676C90.0653 16.676 90.6113 16.7833 91.106 16.998C91.6007 17.2127 92.0253 17.5207 92.38 17.922C92.744 18.3233 93.024 18.818 93.22 19.406C93.416 19.9847 93.514 20.6427 93.514 21.38C93.514 22.1267 93.416 22.794 93.22 23.382C93.024 23.97 92.744 24.474 92.38 24.894C92.0253 25.3047 91.6007 25.622 91.106 25.846C90.6113 26.0607 90.0653 26.168 89.468 26.168ZM89.468 24.754C89.832 24.754 90.1587 24.6747 90.448 24.516C90.7373 24.3573 90.9847 24.1333 91.19 23.844C91.3953 23.5453 91.554 23.1907 91.666 22.78C91.778 22.36 91.834 21.8933 91.834 21.38C91.834 20.3533 91.6193 19.5507 91.19 18.972C90.77 18.384 90.196 18.09 89.468 18.09C88.74 18.09 88.1613 18.384 87.732 18.972C87.312 19.5507 87.102 20.3533 87.102 21.38C87.102 21.8933 87.158 22.36 87.27 22.78C87.382 23.1907 87.5407 23.5453 87.746 23.844C87.9513 24.1333 88.1987 24.3573 88.488 24.516C88.7773 24.6747 89.104 24.754 89.468 24.754ZM96.2009 26L94.3809 16.844H96.0469L96.8449 21.464C96.9196 21.9587 96.9942 22.4487 97.0689 22.934C97.1436 23.4193 97.2182 23.9047 97.2929 24.39H97.3489C97.4516 23.9047 97.5496 23.4193 97.6429 22.934C97.7456 22.4393 97.8482 21.9493 97.9509 21.464L99.0709 16.844H100.485L101.605 21.464C101.708 21.94 101.81 22.4253 101.913 22.92C102.016 23.4053 102.118 23.8953 102.221 24.39H102.277C102.352 23.8953 102.422 23.4053 102.487 22.92C102.562 22.4347 102.636 21.9493 102.711 21.464L103.509 16.844H105.063L103.313 26H101.297L100.163 21.184C100.088 20.8293 100.014 20.4793 99.9389 20.134C99.8736 19.7793 99.8129 19.4247 99.7569 19.07H99.7009C99.6356 19.4247 99.5656 19.7793 99.4909 20.134C99.4256 20.4793 99.3556 20.8293 99.2809 21.184L98.1749 26H96.2009ZM106.488 26V16.844H108.154L111.01 21.996L111.948 23.942H112.004C111.967 23.466 111.92 22.9573 111.864 22.416C111.818 21.8653 111.794 21.3333 111.794 20.82V16.844H113.348V26H111.682L108.826 20.848L107.888 18.902H107.832C107.87 19.3873 107.912 19.896 107.958 20.428C108.014 20.96 108.042 21.4827 108.042 21.996V26H106.488ZM115.676 26V16.844H117.3V24.628H121.108V26H115.676ZM125.822 26.168C125.224 26.168 124.678 26.0607 124.184 25.846C123.689 25.622 123.264 25.3047 122.91 24.894C122.555 24.474 122.28 23.97 122.084 23.382C121.888 22.794 121.79 22.1267 121.79 21.38C121.79 20.6427 121.888 19.9847 122.084 19.406C122.28 18.818 122.555 18.3233 122.91 17.922C123.264 17.5207 123.689 17.2127 124.184 16.998C124.678 16.7833 125.224 16.676 125.822 16.676C126.419 16.676 126.965 16.7833 127.46 16.998C127.954 17.2127 128.379 17.5207 128.734 17.922C129.098 18.3233 129.378 18.818 129.574 19.406C129.77 19.9847 129.868 20.6427 129.868 21.38C129.868 22.1267 129.77 22.794 129.574 23.382C129.378 23.97 129.098 24.474 128.734 24.894C128.379 25.3047 127.954 25.622 127.46 25.846C126.965 26.0607 126.419 26.168 125.822 26.168ZM125.822 24.754C126.186 24.754 126.512 24.6747 126.802 24.516C127.091 24.3573 127.338 24.1333 127.544 23.844C127.749 23.5453 127.908 23.1907 128.02 22.78C128.132 22.36 128.188 21.8933 128.188 21.38C128.188 20.3533 127.973 19.5507 127.544 18.972C127.124 18.384 126.55 18.09 125.822 18.09C125.094 18.09 124.515 18.384 124.086 18.972C123.666 19.5507 123.456 20.3533 123.456 21.38C123.456 21.8933 123.512 22.36 123.624 22.78C123.736 23.1907 123.894 23.5453 124.1 23.844C124.305 24.1333 124.552 24.3573 124.842 24.516C125.131 24.6747 125.458 24.754 125.822 24.754ZM133.438 21.128L133.116 22.248H135.454L135.132 21.128C134.983 20.6427 134.838 20.1433 134.698 19.63C134.568 19.1167 134.437 18.608 134.306 18.104H134.25C134.12 18.6173 133.989 19.1307 133.858 19.644C133.728 20.148 133.588 20.6427 133.438 21.128ZM130.372 26L133.354 16.844H135.258L138.24 26H136.532L135.818 23.522H132.738L132.024 26H130.372ZM139.369 26V16.844H141.819C143.219 16.844 144.311 17.222 145.095 17.978C145.879 18.734 146.271 19.868 146.271 21.38C146.271 22.136 146.168 22.8033 145.963 23.382C145.767 23.9607 145.478 24.446 145.095 24.838C144.722 25.2207 144.264 25.51 143.723 25.706C143.191 25.902 142.584 26 141.903 26H139.369ZM140.993 24.684H141.707C142.64 24.684 143.354 24.418 143.849 23.886C144.353 23.3447 144.605 22.5093 144.605 21.38C144.605 20.26 144.353 19.4433 143.849 18.93C143.345 18.4167 142.631 18.16 141.707 18.16H140.993V24.684ZM150.922 26V16.844H156.452V18.216H152.546V20.806H155.878V22.178H152.546V26H150.922ZM161.478 26.168C160.88 26.168 160.334 26.0607 159.84 25.846C159.345 25.622 158.92 25.3047 158.566 24.894C158.211 24.474 157.936 23.97 157.74 23.382C157.544 22.794 157.446 22.1267 157.446 21.38C157.446 20.6427 157.544 19.9847 157.74 19.406C157.936 18.818 158.211 18.3233 158.566 17.922C158.92 17.5207 159.345 17.2127 159.84 16.998C160.334 16.7833 160.88 16.676 161.478 16.676C162.075 16.676 162.621 16.7833 163.116 16.998C163.61 17.2127 164.035 17.5207 164.39 17.922C164.754 18.3233 165.034 18.818 165.23 19.406C165.426 19.9847 165.524 20.6427 165.524 21.38C165.524 22.1267 165.426 22.794 165.23 23.382C165.034 23.97 164.754 24.474 164.39 24.894C164.035 25.3047 163.61 25.622 163.116 25.846C162.621 26.0607 162.075 26.168 161.478 26.168ZM161.478 24.754C161.842 24.754 162.168 24.6747 162.458 24.516C162.747 24.3573 162.994 24.1333 163.2 23.844C163.405 23.5453 163.564 23.1907 163.676 22.78C163.788 22.36 163.844 21.8933 163.844 21.38C163.844 20.3533 163.629 19.5507 163.2 18.972C162.78 18.384 162.206 18.09 161.478 18.09C160.75 18.09 160.171 18.384 159.742 18.972C159.322 19.5507 159.112 20.3533 159.112 21.38C159.112 21.8933 159.168 22.36 159.28 22.78C159.392 23.1907 159.55 23.5453 159.756 23.844C159.961 24.1333 160.208 24.3573 160.498 24.516C160.787 24.6747 161.114 24.754 161.478 24.754ZM167.355 26V16.844H170.449C170.925 16.844 171.369 16.8907 171.779 16.984C172.19 17.0773 172.545 17.2313 172.843 17.446C173.142 17.6513 173.375 17.9267 173.543 18.272C173.721 18.6173 173.809 19.0467 173.809 19.56C173.809 20.26 173.641 20.8247 173.305 21.254C172.979 21.6833 172.54 21.9913 171.989 22.178L174.173 26H172.353L170.379 22.416H168.979V26H167.355ZM168.979 21.128H170.281C170.907 21.128 171.383 20.9973 171.709 20.736C172.045 20.4747 172.213 20.0827 172.213 19.56C172.213 19.028 172.045 18.6593 171.709 18.454C171.383 18.2487 170.907 18.146 170.281 18.146H168.979V21.128Z" fill="white"/>
  <path d="M79.78 55L76.392 36.744H80.62L81.88 45.284C81.992 46.236 82.1133 47.1973 82.244 48.168C82.3747 49.12 82.496 50.0813 82.608 51.052H82.72C82.9067 50.0813 83.084 49.12 83.252 48.168C83.4387 47.1973 83.6253 46.236 83.812 45.284L85.772 36.744H89.272L91.232 45.284C91.4187 46.2173 91.596 47.1693 91.764 48.14C91.9507 49.092 92.1373 50.0627 92.324 51.052H92.436C92.5667 50.0627 92.688 49.092 92.8 48.14C92.9307 47.188 93.0613 46.236 93.192 45.284L94.452 36.744H98.4L95.152 55H89.972L88.18 46.712C88.0307 46.0027 87.8907 45.2933 87.76 44.584C87.648 43.856 87.5453 43.156 87.452 42.484H87.34C87.228 43.156 87.1067 43.856 86.976 44.584C86.864 45.2933 86.7333 46.0027 86.584 46.712L84.876 55H79.78ZM100.933 55V36.744H105.049V55H100.933ZM109.355 55V36.744H113.583L118.343 45.816L120.135 49.848H120.247C120.154 48.8773 120.042 47.7947 119.911 46.6C119.799 45.4053 119.743 44.2667 119.743 43.184V36.744H123.663V55H119.435L114.675 45.9L112.883 41.924H112.771C112.865 42.932 112.967 44.0147 113.079 45.172C113.21 46.3293 113.275 47.4493 113.275 48.532V55H109.355ZM127.976 55V36.744H133.128C134.528 36.744 135.788 36.9213 136.908 37.276C138.028 37.6307 138.99 38.1813 139.792 38.928C140.595 39.656 141.211 40.5893 141.64 41.728C142.07 42.8667 142.284 44.22 142.284 45.788C142.284 47.356 142.07 48.7187 141.64 49.876C141.211 51.0333 140.604 51.9947 139.82 52.76C139.036 53.5067 138.094 54.0667 136.992 54.44C135.91 54.8133 134.696 55 133.352 55H127.976ZM132.092 51.668H132.876C133.66 51.668 134.37 51.5653 135.004 51.36C135.639 51.1547 136.18 50.828 136.628 50.38C137.076 49.9133 137.422 49.3067 137.664 48.56C137.926 47.8133 138.056 46.8893 138.056 45.788C138.056 44.7053 137.926 43.8 137.664 43.072C137.422 42.3253 137.076 41.7373 136.628 41.308C136.18 40.86 135.639 40.5427 135.004 40.356C134.37 40.1693 133.66 40.076 132.876 40.076H132.092V51.668ZM153.17 55.336C151.938 55.336 150.808 55.1213 149.782 54.692C148.774 54.244 147.906 53.6093 147.178 52.788C146.45 51.9667 145.88 50.968 145.47 49.792C145.078 48.616 144.882 47.2813 144.882 45.788C144.882 44.2947 145.078 42.9693 145.47 41.812C145.88 40.636 146.45 39.656 147.178 38.872C147.906 38.0693 148.774 37.4627 149.782 37.052C150.808 36.6227 151.938 36.408 153.17 36.408C154.402 36.408 155.522 36.6227 156.53 37.052C157.556 37.4627 158.434 38.0693 159.162 38.872C159.89 39.6747 160.45 40.664 160.842 41.84C161.252 42.9973 161.458 44.3133 161.458 45.788C161.458 47.2813 161.252 48.616 160.842 49.792C160.45 50.968 159.89 51.9667 159.162 52.788C158.434 53.6093 157.556 54.244 156.53 54.692C155.522 55.1213 154.402 55.336 153.17 55.336ZM153.17 51.78C154.42 51.78 155.41 51.248 156.138 50.184C156.866 49.1013 157.23 47.636 157.23 45.788C157.23 43.9587 156.866 42.5307 156.138 41.504C155.41 40.4773 154.42 39.964 153.17 39.964C151.919 39.964 150.93 40.4773 150.202 41.504C149.474 42.5307 149.11 43.9587 149.11 45.788C149.11 47.636 149.474 49.1013 150.202 50.184C150.93 51.248 151.919 51.78 153.17 51.78ZM166.514 55L163.126 36.744H167.354L168.614 45.284C168.726 46.236 168.848 47.1973 168.978 48.168C169.109 49.12 169.23 50.0813 169.342 51.052H169.454C169.641 50.0813 169.818 49.12 169.986 48.168C170.173 47.1973 170.36 46.236 170.546 45.284L172.506 36.744H176.006L177.966 45.284C178.153 46.2173 178.33 47.1693 178.498 48.14C178.685 49.092 178.872 50.0627 179.058 51.052H179.17C179.301 50.0627 179.422 49.092 179.534 48.14C179.665 47.188 179.796 46.236 179.926 45.284L181.186 36.744H185.134L181.886 55H176.706L174.914 46.712C174.765 46.0027 174.625 45.2933 174.494 44.584C174.382 43.856 174.28 43.156 174.186 42.484H174.074C173.962 43.156 173.841 43.856 173.71 44.584C173.598 45.2933 173.468 46.0027 173.318 46.712L171.61 55H166.514ZM193.24 55.336C192.045 55.336 190.85 55.1213 189.656 54.692C188.48 54.244 187.425 53.5813 186.492 52.704L188.844 49.876C189.497 50.436 190.216 50.8933 191 51.248C191.802 51.6027 192.586 51.78 193.352 51.78C194.21 51.78 194.845 51.6213 195.256 51.304C195.685 50.9867 195.9 50.5573 195.9 50.016C195.9 49.736 195.834 49.4933 195.704 49.288C195.592 49.0827 195.414 48.9053 195.172 48.756C194.948 48.588 194.668 48.4387 194.332 48.308C194.014 48.1587 193.66 48 193.268 47.832L190.888 46.824C190.421 46.6373 189.964 46.3947 189.516 46.096C189.086 45.7973 188.694 45.452 188.34 45.06C188.004 44.6493 187.733 44.1827 187.528 43.66C187.322 43.1187 187.22 42.512 187.22 41.84C187.22 41.0933 187.378 40.3933 187.696 39.74C188.013 39.068 188.461 38.4893 189.04 38.004C189.618 37.5 190.3 37.108 191.084 36.828C191.886 36.548 192.764 36.408 193.716 36.408C194.78 36.408 195.825 36.6133 196.852 37.024C197.897 37.4347 198.812 38.032 199.596 38.816L197.496 41.42C196.898 40.9533 196.301 40.5987 195.704 40.356C195.106 40.0947 194.444 39.964 193.716 39.964C193.006 39.964 192.437 40.1133 192.008 40.412C191.597 40.692 191.392 41.0933 191.392 41.616C191.392 41.896 191.457 42.1387 191.588 42.344C191.737 42.5307 191.933 42.708 192.176 42.876C192.437 43.0253 192.736 43.1747 193.072 43.324C193.408 43.4547 193.772 43.604 194.164 43.772L196.516 44.724C197.636 45.172 198.513 45.788 199.148 46.572C199.801 47.356 200.128 48.392 200.128 49.68C200.128 50.4453 199.969 51.1733 199.652 51.864C199.353 52.536 198.905 53.1333 198.308 53.656C197.729 54.16 197.01 54.5707 196.152 54.888C195.293 55.1867 194.322 55.336 193.24 55.336Z" fill="white"/>
  <path d="M19 38.0562V49.7285L35.6641 52.1214V38.0562H19Z" fill="white"/>
  <path d="M35.6641 20.1255L19 22.5184V34.1908H35.6641V20.1255Z" fill="white"/>
  <path d="M59.0729 34.1914V16.5674L39.5317 19.3721V34.1914H59.0729Z" fill="white"/>
  <path d="M39.5317 52.8755L59.0729 55.6774V38.0562H39.5317V52.8755Z" fill="white"/>
</svg>

<svg xmlns="http://www.w3.org/2000/svg" width="224" height="72" fill="none"><rect width="224" height="72" rx="8" fill="#3d3d46"/><path d="M77.162 26v-9.156h2.45c1.4 0 2.492.378 3.276 1.134s1.176 1.89 1.176 3.402c0 .756-.103 1.423-.308 2.002-.196.579-.485 1.064-.868 1.456a3.59 3.59 0 0 1-1.372.868c-.532.196-1.139.294-1.82.294h-2.534zm1.624-1.316h.714c.933 0 1.647-.266 2.142-.798.504-.541.756-1.377.756-2.506 0-1.12-.252-1.937-.756-2.45s-1.218-.77-2.142-.77h-.714v6.524zm10.682 1.484c-.597 0-1.143-.107-1.638-.322-.495-.224-.919-.541-1.274-.952-.355-.42-.63-.924-.826-1.512s-.294-1.255-.294-2.002c0-.737.098-1.395.294-1.974.196-.588.471-1.083.826-1.484a3.59 3.59 0 0 1 1.274-.924c.495-.215 1.041-.322 1.638-.322s1.143.107 1.638.322a3.59 3.59 0 0 1 1.274.924c.364.401.644.896.84 1.484.196.579.294 1.237.294 1.974 0 .747-.098 1.414-.294 2.002s-.476 1.092-.84 1.512c-.355.411-.779.728-1.274.952-.495.215-1.041.322-1.638.322zm0-1.414a2 2 0 0 0 .98-.238 2.21 2.21 0 0 0 .742-.672c.205-.299.364-.653.476-1.064.112-.42.168-.887.168-1.4 0-1.027-.215-1.829-.644-2.408a2 2 0 0 0-1.722-.882c-.728 0-1.307.294-1.736.882-.42.579-.63 1.381-.63 2.408 0 .513.056.98.168 1.4.112.411.271.765.476 1.064a2.21 2.21 0 0 0 .742.672 2 2 0 0 0 .98.238zM96.201 26l-1.82-9.156h1.666l.798 4.62.224 1.47.224 1.456h.056l.294-1.456.308-1.47 1.12-4.62h1.414l1.12 4.62.308 1.456.308 1.47h.056l.21-1.47.224-1.456.798-4.62h1.554L103.313 26h-2.016l-1.134-4.816-.224-1.05-.182-1.064h-.056l-.21 1.064-.21 1.05L98.175 26h-1.974zm10.287 0v-9.156h1.666l2.856 5.152.938 1.946h.056l-.14-1.526-.07-1.596v-3.976h1.554V26h-1.666l-2.856-5.152-.938-1.946h-.056l.126 1.526a14.98 14.98 0 0 1 .084 1.568V26h-1.554zm9.188 0v-9.156h1.624v7.784h3.808V26h-5.432zm10.146.168c-.598 0-1.144-.107-1.638-.322-.495-.224-.92-.541-1.274-.952-.355-.42-.63-.924-.826-1.512s-.294-1.255-.294-2.002c0-.737.098-1.395.294-1.974.196-.588.471-1.083.826-1.484a3.59 3.59 0 0 1 1.274-.924c.495-.215 1.04-.322 1.638-.322s1.143.107 1.638.322a3.59 3.59 0 0 1 1.274.924c.364.401.644.896.84 1.484.196.579.294 1.237.294 1.974 0 .747-.098 1.414-.294 2.002s-.476 1.092-.84 1.512a3.66 3.66 0 0 1-1.274.952c-.495.215-1.041.322-1.638.322zm0-1.414c.364 0 .69-.079.98-.238s.536-.383.742-.672c.205-.299.364-.653.476-1.064.112-.42.168-.887.168-1.4 0-1.027-.215-1.829-.644-2.408a2 2 0 0 0-1.722-.882c-.728 0-1.307.294-1.736.882-.42.579-.63 1.381-.63 2.408 0 .513.056.98.168 1.4.112.411.27.765.476 1.064a2.2 2.2 0 0 0 .742.672 2 2 0 0 0 .98.238zm7.616-3.626l-.322 1.12h2.338l-.322-1.12-.434-1.498-.392-1.526h-.056l-.392 1.54-.42 1.484zM130.372 26l2.982-9.156h1.904L138.24 26h-1.708l-.714-2.478h-3.08L132.024 26h-1.652zm8.997 0v-9.156h2.45c1.4 0 2.492.378 3.276 1.134s1.176 1.89 1.176 3.402c0 .756-.103 1.423-.308 2.002-.196.579-.485 1.064-.868 1.456a3.59 3.59 0 0 1-1.372.868c-.532.196-1.139.294-1.82.294h-2.534zm1.624-1.316h.714c.933 0 1.647-.266 2.142-.798.504-.541.756-1.377.756-2.506 0-1.12-.252-1.937-.756-2.45s-1.218-.77-2.142-.77h-.714v6.524zM150.922 26v-9.156h5.53v1.372h-3.906v2.59h3.332v1.372h-3.332V26h-1.624zm10.556.168c-.598 0-1.144-.107-1.638-.322-.495-.224-.92-.541-1.274-.952-.355-.42-.63-.924-.826-1.512s-.294-1.255-.294-2.002c0-.737.098-1.395.294-1.974.196-.588.471-1.083.826-1.484a3.59 3.59 0 0 1 1.274-.924c.495-.215 1.04-.322 1.638-.322s1.143.107 1.638.322a3.59 3.59 0 0 1 1.274.924c.364.401.644.896.84 1.484.196.579.294 1.237.294 1.974 0 .747-.098 1.414-.294 2.002s-.476 1.092-.84 1.512a3.66 3.66 0 0 1-1.274.952c-.495.215-1.041.322-1.638.322zm0-1.414c.364 0 .69-.079.98-.238s.536-.383.742-.672c.205-.299.364-.653.476-1.064.112-.42.168-.887.168-1.4 0-1.027-.215-1.829-.644-2.408a2 2 0 0 0-1.722-.882c-.728 0-1.307.294-1.736.882-.42.579-.63 1.381-.63 2.408 0 .513.056.98.168 1.4.112.411.27.765.476 1.064a2.2 2.2 0 0 0 .742.672 2 2 0 0 0 .98.238zM167.355 26v-9.156h3.094a6.01 6.01 0 0 1 1.33.14c.41.093.766.247 1.064.462.299.205.532.481.7.826.178.345.266.775.266 1.288 0 .7-.168 1.265-.504 1.694-.326.429-.765.737-1.316.924L174.173 26h-1.82l-1.974-3.584h-1.4V26h-1.624zm1.624-4.872h1.302c.626 0 1.102-.131 1.428-.392.336-.261.504-.653.504-1.176 0-.532-.168-.901-.504-1.106-.326-.205-.802-.308-1.428-.308h-1.302v2.982zM79.78 55l-3.388-18.256h4.228l1.26 8.54.364 2.884.364 2.884h.112l.532-2.884.56-2.884 1.96-8.54h3.5l1.96 8.54.532 2.856.56 2.912h.112l.364-2.912.392-2.856 1.26-8.54H98.4L95.152 55h-5.18l-1.792-8.288-.42-2.128-.308-2.1h-.112l-.364 2.1-.392 2.128L84.876 55H79.78zm21.153 0V36.744h4.116V55h-4.116zm8.422 0V36.744h4.228l4.76 9.072 1.792 4.032h.112l-.336-3.248-.168-3.416v-6.44h3.92V55h-4.228l-4.76-9.1-1.792-3.976h-.112l.308 3.248a29.88 29.88 0 0 1 .196 3.36V55h-3.92zm18.621 0V36.744h5.152c1.4 0 2.66.177 3.78.532s2.082.905 2.884 1.652c.803.728 1.419 1.661 1.848 2.8s.644 2.492.644 4.06-.214 2.931-.644 4.088-1.036 2.119-1.82 2.884c-.784.747-1.726 1.307-2.828 1.68-1.082.373-2.296.56-3.64.56h-5.376zm4.116-3.332h.784c.784 0 1.494-.103 2.128-.308a4 4 0 0 0 1.624-.98c.448-.467.794-1.073 1.036-1.82.262-.747.392-1.671.392-2.772 0-1.083-.13-1.988-.392-2.716-.242-.747-.588-1.335-1.036-1.764a3.75 3.75 0 0 0-1.624-.952c-.634-.187-1.344-.28-2.128-.28h-.784v11.592zm21.078 3.668c-1.232 0-2.362-.215-3.388-.644a7.52 7.52 0 0 1-2.604-1.904c-.728-.821-1.298-1.82-1.708-2.996-.392-1.176-.588-2.511-.588-4.004s.196-2.819.588-3.976c.41-1.176.98-2.156 1.708-2.94.728-.803 1.596-1.409 2.604-1.82 1.026-.429 2.156-.644 3.388-.644s2.352.215 3.36.644a7.03 7.03 0 0 1 2.632 1.82c.728.803 1.288 1.792 1.68 2.968.41 1.157.616 2.473.616 3.948 0 1.493-.206 2.828-.616 4.004-.392 1.176-.952 2.175-1.68 2.996a7.46 7.46 0 0 1-2.632 1.904c-1.008.429-2.128.644-3.36.644zm0-3.556c1.25 0 2.24-.532 2.968-1.596.728-1.083 1.092-2.548 1.092-4.396 0-1.829-.364-3.257-1.092-4.284s-1.718-1.54-2.968-1.54-2.24.513-2.968 1.54-1.092 2.455-1.092 4.284c0 1.848.364 3.313 1.092 4.396.728 1.064 1.717 1.596 2.968 1.596zM166.514 55l-3.388-18.256h4.228l1.26 8.54.364 2.884.364 2.884h.112l.532-2.884.56-2.884 1.96-8.54h3.5l1.96 8.54.532 2.856.56 2.912h.112l.364-2.912.392-2.856 1.26-8.54h3.948L181.886 55h-5.18l-1.792-8.288-.42-2.128-.308-2.1h-.112l-.364 2.1-.392 2.128L171.61 55h-5.096zm26.726.336a10.54 10.54 0 0 1-3.584-.644 9.54 9.54 0 0 1-3.164-1.988l2.352-2.828c.653.56 1.372 1.017 2.156 1.372.802.355 1.586.532 2.352.532.858 0 1.493-.159 1.904-.476.429-.317.644-.747.644-1.288 0-.28-.066-.523-.196-.728-.112-.205-.29-.383-.532-.532a3.53 3.53 0 0 0-.84-.448l-1.064-.476-2.38-1.008c-.467-.187-.924-.429-1.372-.728a6.83 6.83 0 0 1-1.176-1.036 5.18 5.18 0 0 1-.812-1.4c-.206-.541-.308-1.148-.308-1.82 0-.747.158-1.447.476-2.1a5.06 5.06 0 0 1 1.344-1.736c.578-.504 1.26-.896 2.044-1.176.802-.28 1.68-.42 2.632-.42a8.37 8.37 0 0 1 3.136.616 7.95 7.95 0 0 1 2.744 1.792l-2.1 2.604a7.56 7.56 0 0 0-1.792-1.064 4.91 4.91 0 0 0-1.988-.392c-.71 0-1.279.149-1.708.448-.411.28-.616.681-.616 1.204 0 .28.065.523.196.728a2.73 2.73 0 0 0 .588.532c.261.149.56.299.896.448l1.092.448 2.352.952c1.12.448 1.997 1.064 2.632 1.848.653.784.98 1.82.98 3.108a5.18 5.18 0 0 1-.476 2.184c-.299.672-.747 1.269-1.344 1.792-.579.504-1.298.915-2.156 1.232-.859.299-1.83.448-2.912.448zM19 38.056v11.672l16.664 2.393V38.056H19zm16.664-17.93L19 22.518V34.19h16.664V20.126zm23.409 14.065V16.567l-19.541 2.805v14.819h19.541zM39.532 52.876l19.541 2.802V38.056H39.532v14.819z" fill="#fff"/></svg>
